src/star-half.svg

<svg viewBox="0 0 16 16" fill="none" xmlns="http://www.w3.org/2000/svg"><path fill-rule="evenodd" clip-rule="evenodd" d="M9.07 6.37L8 3.68L7.9927 3.69819L7.99875 9.75094L8 9.75L8.6 10.2L10.5 11.63L10.02 9.19L9.9 8.58L10.4 8.2L12 7H9.33L9.07 6.37ZM4.00176 13.9912L4 14L8 11L12 14L11 9L15 6H10L8 1L7.99002 1.02494L7.99 1L5.99 5.99H1L1.01329 6H1L5 9L3.99 14L4.00176 13.9912Z" fill="#111111"/></svg>

<svg viewBox="0 0 16 16" fill="none" xmlns="http://www.w3.org/2000/svg"><path fill-rule="evenodd" clip-rule="evenodd" d="M9.07 6.37 8 3.68l-.007.018.006 6.053L8 9.75l.6.45 1.9 1.43-.48-2.44-.12-.61.5-.38L12 7H9.33l-.26-.63Zm-5.068 7.621L4 14l4-3 4 3-1-5 4-3h-5L8 1l-.01.025V1l-2 4.99H1l.013.01H1l4 3-1.01 5 .012-.009Z" fill="#111111"/></svg>
